X: 101284
T: John Walsh's #1
S: "Johnny O'Leary of Sliabh Luachra" (#260)
Z: B.Black
L: 1/8
M: 2/4
Q: 270
R: polka
K: G
G>A BA|GE F/E/D|B,E/B,/ ED|B,D ED|
GF/G/ BA|GE ED|B,D ED|G2 G2 :|
g2 fg|ag gf/e/|dB c/B/A|GA Bd|
ga/g/ fg|ag gf/e/|dB c/B/A|G2 G2 :|
